rospo-icon-theme-classic-common/32x32/places/folder-green-download.svg

<svg height="32" width="32" xmlns="http://www.w3.org/2000/svg"><rect height="16" opacity=".2" rx="1.25" width="25" x="3" y="12"/><path d="m3 21.75c0 .692.5575 1.25 1.25 1.25h22.5c.692 0 1.25-.558 1.25-1.25v-13.5c0-.6925-.558-1.25-1.25-1.25h-12.75v-.75c0-.6925-.557-1.25-1.25-1.25h-8.5c-.6925 0-1.25.5575-1.25 1.25" fill="#60924b"/><rect height="16" opacity=".2" rx="1.25" width="25" x="3" y="10"/><rect fill="#e4e4e4" height="10" rx="1.25" width="21" x="5" y="9"/><rect fill="#87b158" height="16" rx="1.25" width="25" x="3" y="11"/><path d="m4.25 5c-.6925 0-1.25.5575-1.25 1.25v1c0-.6925.5575-1.25 1.25-1.25h8.5c.693 0 1.25.5575 1.25 1.25v.75h12.75c.692 0 1.25.5575 1.25 1.25v-1c0-.6925-.558-1.25-1.25-1.25h-12.75v-.75c0-.6925-.557-1.25-1.25-1.25z" fill="#fff" opacity=".1"/><path d="m15 14v4h-2l3 4 3-4h-2v-4zm-3 8v2h8v-2z" fill="#2f3e1f"/></svg>

<svg xmlns="http://www.w3.org/2000/svg" width="32" height="32" version="1">
 <rect style="opacity:0.2" width="25" height="16" x="3" y="12" rx="1.25" ry="1.25"/>
 <path style="fill:#60924b" d="M 3,21.75 C 3,22.442 3.5575,23 4.25,23 H 26.75 C 27.442,23 28,22.442 28,21.75 V 8.25 C 28,7.5575 27.442,7 26.75,7 H 14 V 6.25 C 14,5.5575 13.443,5 12.75,5 H 4.25 C 3.5575,5 3,5.5575 3,6.25"/>
 <rect style="opacity:0.2" width="25" height="16" x="3" y="10" rx="1.25" ry="1.25"/>
 <rect style="fill:#dcdcdc" width="21" height="10" x="5" y="9" rx="1.25" ry="1.25"/>
 <rect style="fill:#87b158" width="25" height="16" x="3" y="11" rx="1.25" ry="1.25"/>
 <path style="opacity:0.1;fill:#ffffff" d="M 4.25 5 C 3.5575 5 3 5.5575 3 6.25 L 3 7.25 C 3 6.5575 3.5575 6 4.25 6 L 12.75 6 C 13.443 6 14 6.5575 14 7.25 L 14 8 L 26.75 8 C 27.442 8 28 8.5575 28 9.25 L 28 8.25 C 28 7.5575 27.442 7 26.75 7 L 14 7 L 14 6.25 C 14 5.5575 13.443 5 12.75 5 L 4.25 5 z"/>
 <path style="fill:#2f3e1f" d="M 15,14 V 18 H 13 L 16,22 19,18 H 17 V 14 Z M 12,22 V 24 H 20 V 22 Z"/>
</svg>
